lib/brands/logos/ifttt.svg

<svg xmlns="http://www.w3.org/2000/svg" fill="none" aria-hidden="true" viewBox="0 0 197 69"><g id="IFTTT"><path id="Vector" fill="black" d="M4.92505 9.67198H20.7088V59.278H4.92505V9.67198ZM95.1178 9.67198H68.06V25.4557H79.3341V59.278H95.1178V25.4557H106.392V9.67198H95.1178ZM137.959 9.67198H110.902V25.4557H122.176V59.278H137.959V25.4557H149.233V9.67198H137.959ZM180.801 9.67198H153.743V25.4557H165.017V59.278H180.801V25.4557H192.075V9.67198H180.801ZM63.5504 25.4557V9.67198H27.4732V59.278H43.257V45.7491H56.7859V29.9654H43.257V25.4557H63.5504Z"/></g></svg>

<svg xmlns="http://www.w3.org/2000/svg" fill="none" aria-hidden="true" viewBox="0 0 197 69"><path fill="#000" d="M4.925 9.672h15.784v49.606H4.925V9.672Zm90.193 0H68.06v15.784h11.274v33.822h15.784V25.456h11.274V9.672H95.118Zm42.841 0h-27.057v15.784h11.274v33.822h15.783V25.456h11.274V9.672h-11.274Zm42.842 0h-27.058v15.784h11.274v33.822h15.784V25.456h11.274V9.672h-11.274ZM63.551 25.456V9.672H27.472v49.606h15.784V45.749h13.529V29.965h-13.53v-4.51H63.55Z"/></svg>
